X: 08062
T: KERRY'S REEL
C: Bob McQuillen 3 Sept 90
B: Bob's Note Book 8 #62
%R: reel
Z: 2021 John Chambers <jc:trillian.mit.edu>
M: C
L: 1/8
K: G
GE \
| DB,DE DEGA | BdBG AGBA | GEDB, DEGA | BdBG A2GE |\
| DB,DE DEGA | BdBG AGEG | DEGA GBdB | AGAB G2 :|
|: BA \
| GBde dBGA | B2BG AGED | GBde dBGB | AGAB d2Bd |\
| edBA BdBA | GBAG E2GE | DB,DE DEGB | dBAB G2 :|
%%begintext align
%% If you go to Rochester,
%% N.H., you can go to the Rochester Fair; if you go to Rochester, N.Y.
%% you can get your pictures developed at the KODAK plant; if you
%% go to Rochester, MA. you can listen to Kerry Elkin play
%% the fiddle, 'cause that's where he lives. That's what I would
%% do if I were you, because Kerry's a real fine fiddler!
%%endtext

%%sep 1 1 500

%%sep 1 1 500

